resources/icons/16px/rect-width.svg

<svg width="16" height="16" viewBox="0 0 16 16" fill="none" xmlns="http://www.w3.org/2000/svg">
<path d="M1 3V13H15V3H1ZM0 3C0 2.44772 0.447715 2 1 2H15C15.5523 2 16 2.44772 16 3V13C16 13.5523 15.5523 14 15 14H1C0.447715 14 0 13.5523 0 13V3ZM10.7071 5.29289L12.7071 7.29289C12.8946 7.48043 13 7.73478 13 8C13 8.26522 12.8946 8.51957 12.7071 8.70711L10.7071 10.7071C10.3166 11.0976 9.68342 11.0976 9.29289 10.7071C8.90237 10.3166 8.90237 9.68342 9.29289 9.29289L10.5858 8L9.29289 6.70711C8.90237 6.31658 8.90237 5.68342 9.29289 5.29289C9.68342 4.90237 10.3166 4.90237 10.7071 5.29289ZM6.70711 6.70711L5.41421 8L6.70711 9.29289C7.09763 9.68342 7.09763 10.3166 6.70711 10.7071C6.31658 11.0976 5.68342 11.0976 5.29289 10.7071L3.29289 8.70711C3.10536 8.51957 3 8.26522 3 8C3 7.73478 3.10536 7.48043 3.29289 7.29289L5.29289 5.29289C5.68342 4.90237 6.31658 4.90237 6.70711 5.29289C7.09763 5.68342 7.09763 6.31658 6.70711 6.70711Z" fill="black"/>
</svg>

<svg xmlns="http://www.w3.org/2000/svg" viewBox="0 0 16 16">
  <path d="M1 3v10h14V3zM0 3a1 1 0 0 1 1-1h14a1 1 0 0 1 1 1v10a1 1 0 0 1-1 1H1a1 1 0 0 1-1-1zm10.707 2.293 2 2a1 1 0 0 1 0 1.414l-2 2a1 1 0 0 1-1.414-1.414L10.586 8 9.293 6.707a1 1 0 0 1 1.414-1.414m-4 1.414L5.414 8l1.293 1.293a1 1 0 0 1-1.414 1.414l-2-2a1 1 0 0 1 0-1.414l2-2a1 1 0 0 1 1.414 1.414"/>
</svg>
